src/assets/img/icons/icon-share--youtube.svg

<svg fill="none" height="18" viewBox="0 0 24 18" width="24" xmlns="http://www.w3.org/2000/svg"><path clip-rule="evenodd" d="m21.3765.515076c1.0327.283264 1.846 1.118224 2.122 2.178584.5015 1.9217.5015 5.93134.5015 5.93134s0 4.0095-.5015 5.9313c-.276 1.0604-1.0893 1.8954-2.122 2.1788-1.8715.5149-9.3765.5149-9.3765.5149s-7.50505 0-9.37664-.5149c-1.03268-.2834-1.845951-1.1184-2.121951-2.1788-.501409-1.9218-.501409-5.9313-.501409-5.9313s0-4.00964.501409-5.93134c.276-1.06036 1.089271-1.89532 2.121951-2.178584 1.87159-.515076 9.37664-.515076 9.37664-.515076s7.505 0 9.3765.515076zm-11.6265 4.734924v7.5l6-3.74982z" fill="#ed3439" fill-rule="evenodd"/></svg>

<svg width="24" height="18" viewBox="0 0 24 18" fill="none" xmlns="http://www.w3.org/2000/svg">
<path fill-rule="evenodd" clip-rule="evenodd" d="M21.3765 0.515076C22.4092 0.79834 23.2225 1.6333 23.4985 2.69366C24 4.61536 24 8.625 24 8.625C24 8.625 24 12.6345 23.4985 14.5563C23.2225 15.6167 22.4092 16.4517 21.3765 16.7351C19.505 17.25 12 17.25 12 17.25C12 17.25 4.49495 17.25 2.62336 16.7351C1.59068 16.4517 0.777409 15.6167 0.501409 14.5563C0 12.6345 0 8.625 0 8.625C0 8.625 0 4.61536 0.501409 2.69366C0.777409 1.6333 1.59068 0.79834 2.62336 0.515076C4.49495 0 12 0 12 0C12 0 19.505 0 21.3765 0.515076ZM9.75 5.25V12.75L15.75 9.00018L9.75 5.25Z" fill="#ED3439"/>
</svg>
